img/logo.svg

<svg width="214" height="24" viewBox="0 0 214 24" fill="none" xmlns="http://www.w3.org/2000/svg">
<path d="M5.914 18.216C5.23 18.216 4.564 18.15 3.916 18.018C3.28 17.898 2.698 17.73 2.17 17.514C1.654 17.298 1.216 17.064 0.856 16.812L2.044 14.562C2.44 14.838 2.86 15.078 3.304 15.282C3.76 15.474 4.234 15.624 4.726 15.732C5.218 15.828 5.71 15.876 6.202 15.876C6.742 15.876 7.204 15.816 7.588 15.696C7.984 15.576 8.284 15.408 8.488 15.192C8.704 14.976 8.812 14.712 8.812 14.4C8.812 14.112 8.698 13.878 8.47 13.698C8.242 13.518 7.942 13.368 7.57 13.248C7.21 13.116 6.808 12.99 6.364 12.87C5.92 12.75 5.47 12.612 5.014 12.456C4.57 12.288 4.162 12.084 3.79 11.844C3.43 11.592 3.136 11.274 2.908 10.89C2.68 10.506 2.566 10.026 2.566 9.45C2.566 8.586 2.8 7.836 3.268 7.2C3.748 6.564 4.42 6.072 5.284 5.724C6.148 5.364 7.162 5.184 8.326 5.184C9.178 5.184 9.982 5.28 10.738 5.472C11.494 5.652 12.142 5.916 12.682 6.264L11.584 8.496C11.104 8.172 10.57 7.932 9.982 7.776C9.394 7.608 8.788 7.524 8.164 7.524C7.6 7.524 7.114 7.59 6.706 7.722C6.31 7.854 6.004 8.04 5.788 8.28C5.584 8.508 5.482 8.772 5.482 9.072C5.482 9.372 5.59 9.618 5.806 9.81C6.034 9.99 6.334 10.146 6.706 10.278C7.078 10.398 7.486 10.518 7.93 10.638C8.374 10.758 8.818 10.896 9.262 11.052C9.706 11.208 10.114 11.406 10.486 11.646C10.858 11.886 11.158 12.192 11.386 12.564C11.614 12.924 11.728 13.38 11.728 13.932C11.728 14.796 11.488 15.552 11.008 16.2C10.528 16.836 9.85 17.334 8.974 17.694C8.11 18.042 7.09 18.216 5.914 18.216ZM12.4605 18L14.9805 5.4H17.9145L15.3945 18H12.4605ZM17.8268 18L20.3468 5.4H22.7228L26.3048 14.328L25.0448 14.31L32.0288 5.4H34.5308L32.0288 18H29.2928L30.9668 9.558H31.5248L25.9628 16.668H24.6668L21.6968 9.54L22.2368 9.594L20.5628 18H17.8268ZM34.4782 18L36.9982 5.4H42.0922C43.6642 5.4 44.8762 5.748 45.7282 6.444C46.5922 7.128 47.0242 8.088 47.0242 9.324C47.0242 10.38 46.7782 11.304 46.2862 12.096C45.7942 12.876 45.0862 13.476 44.1622 13.896C43.2502 14.316 42.1642 14.526 40.9042 14.526H36.8182L38.3662 13.194L37.4122 18H34.4782ZM38.2942 13.536L37.2682 12.15H41.0302C41.9902 12.15 42.7342 11.934 43.2622 11.502C43.8022 11.058 44.0722 10.416 44.0722 9.576C44.0722 8.964 43.8682 8.514 43.4602 8.226C43.0522 7.926 42.4762 7.776 41.7322 7.776H38.1862L39.7342 6.354L38.2942 13.536ZM46.946 18L49.466 5.4H52.4L50.348 15.624H56.666L56.18 18H46.946ZM59.1005 18L60.1265 12.816L60.4505 14.652L56.7425 5.4H59.6585L62.4845 12.474L60.7205 12.492L66.4265 5.4H69.4325L62.0525 14.67L63.0425 12.816L62.0165 18H59.1005ZM79.1522 18.216C78.1802 18.216 77.2742 18.06 76.4342 17.748C75.6062 17.424 74.8862 16.968 74.2742 16.38C73.6622 15.792 73.1822 15.102 72.8342 14.31C72.4982 13.518 72.3302 12.648 72.3302 11.7C72.3302 10.752 72.4982 9.882 72.8342 9.09C73.1822 8.298 73.6622 7.608 74.2742 7.02C74.8982 6.432 75.6242 5.982 76.4522 5.67C77.2802 5.346 78.1862 5.184 79.1702 5.184C80.2622 5.184 81.2462 5.376 82.1222 5.76C83.0102 6.132 83.7542 6.684 84.3542 7.416L82.4822 9.144C82.0502 8.652 81.5702 8.286 81.0422 8.046C80.5142 7.794 79.9382 7.668 79.3142 7.668C78.7262 7.668 78.1862 7.764 77.6942 7.956C77.2022 8.148 76.7762 8.424 76.4162 8.784C76.0562 9.144 75.7742 9.57 75.5702 10.062C75.3782 10.554 75.2822 11.1 75.2822 11.7C75.2822 12.3 75.3782 12.846 75.5702 13.338C75.7742 13.83 76.0562 14.256 76.4162 14.616C76.7762 14.976 77.2022 15.252 77.6942 15.444C78.1862 15.636 78.7262 15.732 79.3142 15.732C79.9382 15.732 80.5142 15.612 81.0422 15.372C81.5702 15.12 82.0502 14.742 82.4822 14.238L84.3542 15.966C83.7542 16.698 83.0102 17.256 82.1222 17.64C81.2462 18.024 80.2562 18.216 79.1522 18.216ZM94.4234 5.4H97.3394V18H94.4234V5.4ZM88.6994 18H85.7834V5.4H88.6994V18ZM94.6394 12.834H88.4834V10.368H94.6394V12.834ZM105.9 18.216C104.904 18.216 103.98 18.054 103.128 17.73C102.288 17.406 101.556 16.95 100.932 16.362C100.32 15.774 99.8405 15.084 99.4925 14.292C99.1565 13.5 98.9885 12.636 98.9885 11.7C98.9885 10.764 99.1565 9.9 99.4925 9.108C99.8405 8.316 100.326 7.626 100.95 7.038C101.574 6.45 102.306 5.994 103.146 5.67C103.986 5.346 104.898 5.184 105.882 5.184C106.878 5.184 107.79 5.346 108.618 5.67C109.458 5.994 110.184 6.45 110.796 7.038C111.42 7.626 111.906 8.316 112.254 9.108C112.602 9.888 112.776 10.752 112.776 11.7C112.776 12.636 112.602 13.506 112.254 14.31C111.906 15.102 111.42 15.792 110.796 16.38C110.184 16.956 109.458 17.406 108.618 17.73C107.79 18.054 106.884 18.216 105.9 18.216ZM105.882 15.732C106.446 15.732 106.962 15.636 107.43 15.444C107.91 15.252 108.33 14.976 108.69 14.616C109.05 14.256 109.326 13.83 109.518 13.338C109.722 12.846 109.824 12.3 109.824 11.7C109.824 11.1 109.722 10.554 109.518 10.062C109.326 9.57 109.05 9.144 108.69 8.784C108.342 8.424 107.928 8.148 107.448 7.956C106.968 7.764 106.446 7.668 105.882 7.668C105.318 7.668 104.796 7.764 104.316 7.956C103.848 8.148 103.434 8.424 103.074 8.784C102.714 9.144 102.432 9.57 102.228 10.062C102.036 10.554 101.94 11.1 101.94 11.7C101.94 12.288 102.036 12.834 102.228 13.338C102.432 13.83 102.708 14.256 103.056 14.616C103.416 14.976 103.836 15.252 104.316 15.444C104.796 15.636 105.318 15.732 105.882 15.732ZM120.458 18.216C119.486 18.216 118.58 18.06 117.74 17.748C116.912 17.424 116.192 16.968 115.58 16.38C114.968 15.792 114.488 15.102 114.14 14.31C113.804 13.518 113.636 12.648 113.636 11.7C113.636 10.752 113.804 9.882 114.14 9.09C114.488 8.298 114.968 7.608 115.58 7.02C116.204 6.432 116.93 5.982 117.758 5.67C118.586 5.346 119.492 5.184 120.476 5.184C121.568 5.184 122.552 5.376 123.428 5.76C124.316 6.132 125.06 6.684 125.66 7.416L123.788 9.144C123.356 8.652 122.876 8.286 122.348 8.046C121.82 7.794 121.244 7.668 120.62 7.668C120.032 7.668 119.492 7.764 119 7.956C118.508 8.148 118.082 8.424 117.722 8.784C117.362 9.144 117.08 9.57 116.876 10.062C116.684 10.554 116.588 11.1 116.588 11.7C116.588 12.3 116.684 12.846 116.876 13.338C117.08 13.83 117.362 14.256 117.722 14.616C118.082 14.976 118.508 15.252 119 15.444C119.492 15.636 120.032 15.732 120.62 15.732C121.244 15.732 121.82 15.612 122.348 15.372C122.876 15.12 123.356 14.742 123.788 14.238L125.66 15.966C125.06 16.698 124.316 17.256 123.428 17.64C122.552 18.024 121.562 18.216 120.458 18.216ZM132.945 18.216C131.949 18.216 131.025 18.054 130.173 17.73C129.333 17.406 128.601 16.95 127.977 16.362C127.365 15.774 126.885 15.084 126.537 14.292C126.201 13.5 126.033 12.636 126.033 11.7C126.033 10.764 126.201 9.9 126.537 9.108C126.885 8.316 127.371 7.626 127.995 7.038C128.619 6.45 129.351 5.994 130.191 5.67C131.031 5.346 131.943 5.184 132.927 5.184C133.923 5.184 134.835 5.346 135.663 5.67C136.503 5.994 137.229 6.45 137.841 7.038C138.465 7.626 138.951 8.316 139.299 9.108C139.647 9.888 139.821 10.752 139.821 11.7C139.821 12.636 139.647 13.506 139.299 14.31C138.951 15.102 138.465 15.792 137.841 16.38C137.229 16.956 136.503 17.406 135.663 17.73C134.835 18.054 133.929 18.216 132.945 18.216ZM132.927 15.732C133.491 15.732 134.007 15.636 134.475 15.444C134.955 15.252 135.375 14.976 135.735 14.616C136.095 14.256 136.371 13.83 136.563 13.338C136.767 12.846 136.869 12.3 136.869 11.7C136.869 11.1 136.767 10.554 136.563 10.062C136.371 9.57 136.095 9.144 135.735 8.784C135.387 8.424 134.973 8.148 134.493 7.956C134.013 7.764 133.491 7.668 132.927 7.668C132.363 7.668 131.841 7.764 131.361 7.956C130.893 8.148 130.479 8.424 130.119 8.784C129.759 9.144 129.477 9.57 129.273 10.062C129.081 10.554 128.985 11.1 128.985 11.7C128.985 12.288 129.081 12.834 129.273 13.338C129.477 13.83 129.753 14.256 130.101 14.616C130.461 14.976 130.881 15.252 131.361 15.444C131.841 15.636 132.363 15.732 132.927 15.732ZM141.473 18V5.4H144.389V15.624H150.707V18H141.473ZM150.211 18L155.827 5.4H158.707L164.341 18H161.281L156.673 6.876H157.825L153.199 18H150.211ZM153.019 15.3L153.793 13.086H160.273L161.065 15.3H153.019ZM167.085 18V7.776H163.053V5.4H174.033V7.776H170.001V18H167.085ZM177.744 10.476H183.81V12.744H177.744V10.476ZM177.96 15.66H184.818V18H175.062V5.4H184.584V7.74H177.96V15.66Z" fill="#111111"/>
<path d="M192.958 15.0568L201.041 1.9886L201.521 1.48303L207.697 5.6014L207.74 8.08665L209.247 10.5463L202.587 21.1038L192.958 15.0568Z" fill="#FCF1E0"/>
<path d="M206.226 17.9097L195.587 11.2616M198.521 6.44905L209.16 13.0971M197.972 19.3982L206.774 4.96051M210.382 11.0919C208.102 9.6673 207.207 8.55395 208.674 6.14767L201.455 1.63647L192.653 16.0742L203.292 22.7223L210.382 11.0919Z" stroke="#FD9222" stroke-width="2" stroke-linecap="round" stroke-linejoin="round"/>
</svg>

<svg fill="none" height="24" viewBox="0 0 214 24" width="214" xmlns="http://www.w3.org/2000/svg"><path d="m5.914 18.216c-.684 0-1.35-.066-1.998-.198-.636-.12-1.218-.288-1.746-.504-.516-.216-.954-.45-1.314-.702l1.188-2.25c.396.276.816.516 1.26.72.456.192.93.342 1.422.45.492.096.984.144 1.476.144.54 0 1.002-.06 1.386-.18.396-.12.696-.288.9-.504.216-.216.324-.48.324-.792 0-.288-.114-.522-.342-.702s-.528-.33-.9-.45c-.36-.132-.762-.258-1.206-.378s-.894-.258-1.35-.414c-.444-.168-.852-.372-1.224-.612-.36-.252-.654-.57-.882-.954s-.342-.864-.342-1.44c0-.864.234-1.614.702-2.25.48-.636 1.152-1.128 2.016-1.476.864-.36 1.878-.54 3.042-.54.852 0 1.656.096 2.412.288.756.18 1.404.444 1.944.792l-1.098 2.232c-.48-.324-1.014-.564-1.602-.72-.588-.168-1.194-.252-1.818-.252-.564 0-1.05.066-1.458.198-.396.132-.702.318-.918.558-.204.228-.306.492-.306.792s.108.546.324.738c.228.18.528.336.9.468.372.12.78.24 1.224.36s.888.258 1.332.414.852.354 1.224.594.672.546.9.918c.228.36.342.816.342 1.368 0 .864-.24 1.62-.72 2.268-.48.636-1.158 1.134-2.034 1.494-.864.348-1.884.522-3.06.522zm6.5465-.216 2.52-12.6h2.934l-2.52 12.6zm5.3663 0 2.52-12.6h2.376l3.582 8.928-1.26-.018 6.984-8.91h2.502l-2.502 12.6h-2.736l1.674-8.442h.558l-5.562 7.11h-1.296l-2.97-7.128.54.054-1.674 8.406zm16.6514 0 2.52-12.6h5.094c1.572 0 2.784.348 3.636 1.044.864.684 1.296 1.644 1.296 2.88 0 1.056-.246 1.98-.738 2.772-.492.78-1.2 1.38-2.124 1.8-.912.42-1.998.63-3.258.63h-4.086l1.548-1.332-.954 4.806zm3.816-4.464-1.026-1.386h3.762c.96 0 1.704-.216 2.232-.648.54-.444.81-1.086.81-1.926 0-.612-.204-1.062-.612-1.35-.408-.3-.984-.45-1.728-.45h-3.546l1.548-1.422zm8.6518 4.464 2.52-12.6h2.934l-2.052 10.224h6.318l-.486 2.376zm12.1545 0 1.026-5.184.324 1.836-3.708-9.252h2.916l2.826 7.074-1.764.018 5.706-7.092h3.006l-7.38 9.27.99-1.854-1.026 5.184zm20.0517.216c-.972 0-1.878-.156-2.718-.468-.828-.324-1.548-.78-2.16-1.368s-1.092-1.278-1.44-2.07c-.336-.792-.504-1.662-.504-2.61s.168-1.818.504-2.61c.348-.792.828-1.482 1.44-2.07.624-.588 1.35-1.038 2.178-1.35.828-.324 1.734-.486 2.718-.486 1.092 0 2.076.192 2.952.576.888.372 1.632.924 2.232 1.656l-1.872 1.728c-.432-.492-.912-.858-1.44-1.098-.528-.252-1.104-.378-1.728-.378-.588 0-1.128.096-1.62.288s-.918.468-1.278.828-.642.786-.846 1.278c-.192.492-.288 1.038-.288 1.638s.096 1.146.288 1.638c.204.492.486.918.846 1.278s.786.636 1.278.828 1.032.288 1.62.288c.624 0 1.2-.12 1.728-.36.528-.252 1.008-.63 1.44-1.134l1.872 1.728c-.6.732-1.344 1.29-2.232 1.674-.876.384-1.866.576-2.97.576zm15.2712-12.816h2.916v12.6h-2.916zm-5.724 12.6h-2.916v-12.6h2.916zm5.94-5.166h-6.156v-2.466h6.156zm11.2606 5.382c-.996 0-1.92-.162-2.772-.486-.84-.324-1.572-.78-2.196-1.368-.612-.588-1.0915-1.278-1.4395-2.07-.336-.792-.504-1.656-.504-2.592s.168-1.8.504-2.592c.348-.792.8335-1.482 1.4575-2.07s1.356-1.044 2.196-1.368 1.752-.486 2.736-.486c.996 0 1.908.162 2.736.486.84.324 1.566.78 2.178 1.368.624.588 1.11 1.278 1.458 2.07.348.78.522 1.644.522 2.592 0 .936-.174 1.806-.522 2.61-.348.792-.834 1.482-1.458 2.07-.612.576-1.338 1.026-2.178 1.35-.828.324-1.734.486-2.718.486zm-.018-2.484c.564 0 1.08-.096 1.548-.288.48-.192.9-.468 1.26-.828s.636-.786.828-1.278c.204-.492.306-1.038.306-1.638s-.102-1.146-.306-1.638c-.192-.492-.468-.918-.828-1.278-.348-.36-.762-.636-1.242-.828s-1.002-.288-1.566-.288-1.086.096-1.566.288c-.468.192-.882.468-1.242.828s-.642.786-.846 1.278c-.192.492-.288 1.038-.288 1.638 0 .588.096 1.134.288 1.638.204.492.48.918.828 1.278.36.36.78.636 1.26.828s1.002.288 1.566.288zm14.576 2.484c-.972 0-1.878-.156-2.718-.468-.828-.324-1.548-.78-2.16-1.368s-1.092-1.278-1.44-2.07c-.336-.792-.504-1.662-.504-2.61s.168-1.818.504-2.61c.348-.792.828-1.482 1.44-2.07.624-.588 1.35-1.038 2.178-1.35.828-.324 1.734-.486 2.718-.486 1.092 0 2.076.192 2.952.576.888.372 1.632.924 2.232 1.656l-1.872 1.728c-.432-.492-.912-.858-1.44-1.098-.528-.252-1.104-.378-1.728-.378-.588 0-1.128.096-1.62.288s-.918.468-1.278.828-.642.786-.846 1.278c-.192.492-.288 1.038-.288 1.638s.096 1.146.288 1.638c.204.492.486.918.846 1.278s.786.636 1.278.828 1.032.288 1.62.288c.624 0 1.2-.12 1.728-.36.528-.252 1.008-.63 1.44-1.134l1.872 1.728c-.6.732-1.344 1.29-2.232 1.674-.876.384-1.866.576-2.97.576zm12.487 0c-.996 0-1.92-.162-2.772-.486-.84-.324-1.572-.78-2.196-1.368-.612-.588-1.092-1.278-1.44-2.07-.336-.792-.504-1.656-.504-2.592s.168-1.8.504-2.592c.348-.792.834-1.482 1.458-2.07s1.356-1.044 2.196-1.368 1.752-.486 2.736-.486c.996 0 1.908.162 2.736.486.84.324 1.566.78 2.178 1.368.624.588 1.11 1.278 1.458 2.07.348.78.522 1.644.522 2.592 0 .936-.174 1.806-.522 2.61-.348.792-.834 1.482-1.458 2.07-.612.576-1.338 1.026-2.178 1.35-.828.324-1.734.486-2.718.486zm-.018-2.484c.564 0 1.08-.096 1.548-.288.48-.192.9-.468 1.26-.828s.636-.786.828-1.278c.204-.492.306-1.038.306-1.638s-.102-1.146-.306-1.638c-.192-.492-.468-.918-.828-1.278-.348-.36-.762-.636-1.242-.828s-1.002-.288-1.566-.288-1.086.096-1.566.288c-.468.192-.882.468-1.242.828s-.642.786-.846 1.278c-.192.492-.288 1.038-.288 1.638 0 .588.096 1.134.288 1.638.204.492.48.918.828 1.278.36.36.78.636 1.26.828s1.002.288 1.566.288zm8.546 2.268v-12.6h2.916v10.224h6.318v2.376zm8.738 0 5.616-12.6h2.88l5.634 12.6h-3.06l-4.608-11.124h1.152l-4.626 11.124zm2.808-2.7.774-2.214h6.48l.792 2.214zm14.066 2.7v-10.224h-4.032v-2.376h10.98v2.376h-4.032v10.224zm10.659-7.524h6.066v2.268h-6.066zm.216 5.184h6.858v2.34h-9.756v-12.6h9.522v2.34h-6.624z" fill="#111"/><path d="m192.958 15.0568 8.083-13.0682.48-.50557 6.176 4.11837.043 2.48525 1.507 2.45965-6.66 10.5575z" fill="#fcf1e0"/><path d="m206.226 17.9097-10.639-6.6481m2.934-4.81255 10.639 6.64805m-11.188 6.3011 8.802-14.43769m3.608 6.13139c-2.28-1.4246-3.175-2.53795-1.708-4.94423l-7.219-4.5112-8.802 14.43773 10.639 6.6481z" stroke="#fd9222" stroke-linecap="round" stroke-linejoin="round" stroke-width="2"/></svg>
